X:1
T:Brezon valse
C:
R:walzer
A:France
Z:abc transcription Simon Wascher
M:3/4
L:1/4
K:G
D |\
GG/F/G/B/ | GG/F/G/B/ | GG/F/G/B/ | A/B/cA |\
FF/E/F/A/ | FF/E/F/A/ | FEF | G2 :|
|: d |\
BB/A/B/d/ | c2B | AA/G/A/c/ | B/c/dB |\
GG/F/G/B/ | A/B/cA | FF/E/F/A/ |1 G/D/G/B/ :|\
                               [2 G2 ||
|: D |\
GG/F/G/A/ | BAG | DEF | E2D |\
AA/G/A/B/ | cBA | DEF | G2 :|
